!!!OTL: HOERT IHR DEN SCHWAEBISCHEN WIRBELTANZ
!!!ARE: Europa, Mitteleuropa, Deutschland
!!!SCT: B0709
!!!YEM: Copyright 1995, estate of Helmut Schaffrath.
**kern
*ICvox
*Ivox
*M3/8
*k[]
*C:
=1
{8.G
16c
8c
=2
8c
16d
16c
16B
16A
=3
8.A
16G
8G}
=4
{8.c
16c
8c
=5
8d
8c
8d
=6
4e
8r}
=7
{8f
8d
8d
=8
16c
16B
16A
16G
16A
16B
=9
8c
8e
8g}
=10
{8f
8d
8d
=11
16c
16B
16A
16G
16A
16B
=12
4c
8r}
=13
{8f
8d
8d
=14
16c
16B
16A
16G
16A
16B
=15
8c
8e
8g}
=16
{8f
8d
8d
=17
16c
16B
16A
16G
16A
16B
=18
4c
8r}
==
!!!AGN: Scherz - Lied, Tanz
!!!ONB: ESAC (Essen Associative Code) Database: BOEHME
!!!AMT: simple triple
!!!AIN: vox
!!!EED: Helmut Schaffrath
!!!EEV: 1.0
*-
